X:7
T: ES WAR EIN WILDER WASSERMANN
N: E0001F
O: Europa, Mitteleuropa, Deutschland, Hohen - Saten, Oderberg
R: Sage, Maerchen -, Zauber - Lied
M: 2/4
L: 1/16
K: G
D2 | G2G2A2Ac | B2BAG2
AB | c2A2G2FA | E2D2z2
D2 | G2B2d2G2 | F2A2c2
d2 | B2B2c2F2 | G4z2

